X:120
T:Silent Night
M:3/4
L:1/8
K:G
d3 e d2 | B6 | d3 e d2 | B6 | 
a4 a2 | f6 | g4 g2 | d6 | 
e4 e2 | g3 f e2 | d3 e d2 | B6 | 
a4 a2 | c'3 a f2 | g6 | b6 | 
g3 d B2 | d3 c A2 | G6 | -G4 z2 | 

